!!!COM: Bach, Johann Sebastian
!!!CDT: 1685/3/-1750/7/28
!!!OPR@@DE: Das wohltemperierte Klavier
!!!OPR@EN: The Well-Tempered Clavier
!!!OTL: The Well-Tempered Clavier, Book 2, Fugue 10 in E minor
!!!SCT: BWV 879b
!!!parts: 3
**kern	**kern	**kern
*staff2	*staff1	*staff1
*clefF4	*clefG2	*clefG2
*k[f#]	*k[f#]	*k[f#]
*M2/2	*M2/2	*M2/2
*e:	*e:	*e:
*MM130	*MM130	*MM130
4r	4r	12r
.	.	12eL
.	.	12f#J
=1	=1	=1
1r	1r	4g'
.	.	16aL
.	.	16g
.	.	16f#
.	.	16gJ
.	.	4a'
.	.	16bL
.	.	16a
.	.	16g
.	.	16aJ
=2	=2	=2
1r	1r	4b'
.	.	4g'
.	.	4e'
.	.	[4cc
=3	=3	=3
1r	1r	4cc]
.	.	6b
.	.	12dd#
.	.	4ee'
.	.	[4a
=4	=4	=4
1r	1r	4a]
.	.	6g
.	.	12dd#
.	.	4ee'
.	.	[4f#
=5	=5	=5
1r	1r	12f#]L
.	.	12g
.	.	12a
.	.	12g
.	.	12f#
.	.	12eJ
.	.	12d#L
.	.	12cc
.	.	12b
.	.	12a
.	.	12g
.	.	12f#J
=6	=6	=6
1r	2r	12gL
.	.	12a
.	.	12b
.	.	12a
.	.	12g
.	.	12f#J
.	4r	12eL
.	.	12ee
.	.	12dd
.	12r	12cc#
.	12BL	12b
.	12c#J	12a#J
=7	=7	=7
1r	4d'	12bL
.	.	12dd
.	.	12ff#J
.	16eL	4gg#'
.	16d	.
.	16c#	.
.	16dJ	.
.	4e'	12cc#L
.	.	12ee
.	.	12ggnJ
.	16f#L	4aa#'
.	16e	.
.	16d	.
.	16eJ	.
=8	=8	=8
1r	4f#'	12ddL
.	.	12ff#
.	.	12aa#J
.	4d'	[4bb
.	4B'	12bb]L
.	.	12aan
.	.	12gg
.	[4g	12ff#
.	.	12ee
.	.	12dd#J
=9	=9	=9
1r	4g]	2ee
.	6f#	.
.	12a#	.
.	4b	2ddn
.	[4e	.
=10	=10	=10
1r	4e]	2cc#
.	6d	.
.	12a#	.
.	4b	2b
.	[4c#	.
=11	=11	=11
1r	12c#]L	4a#
.	12d	.
.	12e	.
.	12d	4b
.	12c#	.
.	12BJ	.
.	12A#L	[2cc#
.	12g	.
.	12f#	.
.	12e	.
.	12d	.
.	12c#J	.
=12	=12	=12
2r	12dL	4cc#]
.	12e	.
.	12f#	.
.	12e	6ff#
.	12d	.
.	12c#J	12a#
4r	12BL	[2b
.	12an	.
.	12g	.
12r	12f#	.
12EL	12e	.
12F#J	12d#J	.
=13	=13	=13
4G'	2e	12b]L
.	.	12g
.	.	12bJ
16AL	.	[4cc#
16G	.	.
16F#	.	.
16GJ	.	.
4A'	2f#	12cc#]L
.	.	12a
.	.	12ccnJ
16BL	.	4dd#
16A	.	.
16G	.	.
16AJ	.	.
=14	=14	=14
4B'	2g	12ddL
.	.	12b
.	.	12dd#J
4G'	.	[4ee
4E'	12g#L	2ee_
.	12ddn	.
.	12cc	.
[4c	12b	.
.	12a	.
.	12g#J	.
=15	=15	=15
4c]	2a	12ee]L
.	.	12dd#
.	.	12eeJ
6B	.	[4ff#
12d#	.	.
4e	2gn	12ff#]L
.	.	12ee
.	.	12ddn
[4A	.	12cc#
.	.	12dd#
.	.	12eeJ
=16	=16	=16
4A]	2f#	12dd#L
.	.	12ee
.	.	12ff#J
6G	.	[4b
12d#	.	.
4e	2e	12b]L
.	.	12a
.	.	12g
[4F#	.	12a
.	.	12b
.	.	[12ccJ
=17	=17	=17
12F#]L	4d#	4cc]
12G	.	.
12A	.	.
12G	4e	12bL
12F#	.	12a
12EJ	.	12gJ
12D#L	[2f#	4a
12c	.	.
12B	.	.
12A	.	4d#
12G	.	.
12F#J	.	.
=18	=18	=18
12GL	6f#]	[2b
12A	.	.
12B	12d#	.
12A	6e	.
12G	.	.
12F#J	12f#	.
12EL	[2g	6b]
12d	.	.
12c	.	12e
12B	.	6d#
12A	.	.
12GJ	.	12e
=19	=19	=19
12AL	6g]	[2cc
12B	.	.
12c	12e	.
12B	6f#	.
12A	.	.
12GJ	12g	.
12F#L	[2a	6cc]
12e	.	.
12d	.	12f#
12c	.	6e
12B	.	.
12AJ	.	12f#
=20	=20	=20
12BL	6a]	[2dd
12c	.	.
12d	12f#	.
12c	6g	.
12B	.	.
12AJ	12a	.
12GL	4b	12dd]L
12B	.	12g
12dJ	.	12a
4g	4r	12b
.	.	12cc
.	.	12ddJ
=21	=21	=21
4c	12r	[2ee
.	12ddL	.
.	12cc	.
4e	12b	.
.	12a	.
.	12gJ	.
12F#L	4a	12ee]L
12A	.	12f#
12cJ	.	12g
4f#	4r	12a
.	.	12b
.	.	12ccJ
=22	=22	=22
4B	12r	[2dd
.	12ccL	.
.	12b	.
4d	12a	.
.	12g	.
.	12f#J	.
12EL	4g	12dd]L
12G	.	12e
12BJ	.	12f#
4e	4r	12g
.	.	12a
.	.	12bJ
=23	=23	=23
4A	12r	[2cc
.	12bL	.
.	12a	.
4c	12g	.
.	12f#	.
.	12eJ	.
12DL	4f#	12cc]L
12F#	.	12d
12AJ	.	12e
4d	4r	12f#
.	.	12g
.	.	12aJ
=24	=24	=24
2G	12r	4b'
.	12BL	.
.	12dJ	.
.	[4e	16ccL
.	.	16b
.	.	16a
.	.	16bJ
2A	12e]L	4cc'
.	12c	.
.	12eJ	.
.	[4f#	16ddL
.	.	16cc
.	.	16b
.	.	16ccJ
=25	=25	=25
4B	12f#]L	4dd
.	12d	.
.	12f#	.
4r	12g	4b
.	12G	.
.	12BJ	.
2r	12eL	4g
.	12E	.
.	12F#	.
.	12G	[4ee
.	12A	.
.	12BJ	.
=26	=26	=26
12r	2c	4ee]
12AL	.	.
12G	.	.
12F#	.	6dd
12G	.	.
12AJ	.	12ff#
12r	2B	4gg
12GL	.	.
12F#	.	.
12E	.	[4cc
12F#	.	.
12GJ	.	.
=27	=27	=27
12r	2A	4cc]
12F#L	.	.
12E	.	.
12D	.	6b
12E	.	.
12CJ	.	12ff#
4BB	12r	4gg
.	12DL	.
.	[12G	.
*strophe	*	*
*^	*	*
*S/sic	*S/ossia	*	*
4C#xx	4Cxx	12G]	[4a
.	.	12F#	.
.	.	12GJ	.
*v	*v	*	*
*Xstrophe	*	*
=28	=28	=28
2D	4F#	12a]L
.	.	12b
.	.	12cc
.	4G	12b
.	.	12a
.	.	12gJ
4r	4A	12f#L
.	.	12ee
.	.	12dd
4D	4F#	12cc
.	.	12b
.	.	12aJ
=29	=29	=29
[4G	6G	12bL
.	.	12cc
.	12B	12dd
6G]	2d	12cc
.	.	12b
12F#	.	12aJ
4E	.	12gL
.	.	12gg
.	.	12ff#
4A	12c#L	12ee
.	12d	12dd
.	12eJ	12cc#J
=30	=30	=30
12DL	4f#	4dd
12F#	.	.
12AJ	.	.
4B	16gL	4r
.	16f#	.
.	16e	.
.	16f#J	.
12EL	4g	4cc#
12G	.	.
*strophe	*	*
*^	*	*
*S/sic	*S/ossia	*	*
12AJ	12BJ	.	.
*v	*v	*	*
*Xstrophe	*	*
4c#	16aL	4r
.	16g	.
.	16f#	.
.	16gJ	.
=31	=31	=31
12F#L	4a	4ccn
12G	.	.
12AJ	.	.
4d	4f#	4r
12r	4d	4b
12cnL	.	.
12B	.	.
12A	[4b	4dd
12G	.	.
12F#J	.	.
=32	=32	=32
12EL	4b]	2gg
12G	.	.
12B	.	.
12c#	6a	.
12e	.	.
12AJ	12cc#	.
12DL	4dd	2ff#
12d	.	.
12c#	.	.
12B	[4g	.
12A	.	.
12GJ	.	.
=33	=33	=33
12C#L	4g]	2ee
12E	.	.
12G	.	.
12A	6f#	.
12c#	.	.
12F#J	12cc#	.
12BBL	4dd	2dd
12B	.	.
12A	.	.
12G	[4e	.
12F#	.	.
12EJ	.	.
=34	=34	=34
2A	12e]L	4cc#
.	12f#	.
.	12g	.
.	12f#	4dd
.	12e	.
.	12dJ	.
4r	12c#L	[2ee
.	12b	.
.	12a	.
4c#	12g	.
.	12f#	.
.	12eJ	.
=35	=35	=35
2d	12f#L	6ee]
.	12g	.
.	12a	12cc#
.	12g	6dd
.	12f#	.
.	12eJ	12ee
4r	12dL	[2ff#
.	12ccn	.
.	12b	.
4d#	12a	.
.	12g	.
.	12f#J	.
=36	=36	=36
2e	12gL	6ff#]
.	12a	.
.	12b	12dd#
.	12a	6ee
.	12g	.
.	12f#J	12ff#
4r	12eL	4gg
.	12ddn	.
.	12cc#	.
4e#	12b	[4cc#
.	12a#	.
.	12g#J	.
=37	=37	=37
[2f#	4a#	12cc#]L
.	.	12dd
.	.	12ee
.	4b	12dd
.	.	12cc#
.	.	12bJ
12f#]L	4cc#	4aa#
12g	.	.
12f#	.	.
12e	[4cc#	4cc#S
12d	.	.
12c#J	.	.
=38	=38	=38
[2d	12cc#]L	2.ff#
.	12ee	.
.	12dd	.
.	12cc#	.
.	12b	.
.	12a#J	.
12d]L	4b	.
12e	.	.
12d	.	.
12c#	4cc#	[4ee
12B	.	.
12A#J	.	.
=39	=39	=39
[2B	2f#	12ee]L
.	.	12ff#
.	.	12ee
.	.	12dd
.	.	12cc#
.	.	12bJ
12B]L	4r	[2ff#
12cn	.	.
12B	.	.
12A	4f#	.
12G	.	.
12F#J	.	.
=40	=40	=40
[2G	2b	12ff#]L
.	.	12gg
.	.	12ff#
.	.	12ee
.	.	12dd#
.	.	12cc#J
12G]L	4cc#	[2aa
12A	.	.
12G	.	.
12F#	12dd#L	.
12E	12ee	.
12D#J	12ff#J	.
=41	=41	=41
12EL	4b	4aa]
12F#	.	.
12E	.	.
12Dn	[4ee	4gg
12C#	.	.
12BBJ	.	.
12AA#L	12ee]L	[2ff#
12FF#	12ee	.
12GG#	12dd	.
12AA#	12cc#	.
12BB	12b	.
12C#J	12a#J	.
=42	=42	=42
4D'	12bL	2ff#]
.	12dd	.
.	12bJ	.
16EL	4g#	.
16D	.	.
16C#	.	.
16DJ	.	.
4E'	[2cc#	12r
.	.	12eeL
.	.	12g#J
16F#L	.	4a#
16E	.	.
16D	.	.
16EJ	.	.
=43	=43	=43
4F#'	4cc#]	12ddL
.	.	12ff#
.	.	12a#J
4D'	[4b	[4b
4BB'	12b]L	2b_
.	12an	.
.	12g	.
[4G	12f#	.
.	12e	.
.	12d#J	.
=44	=44	=44
4G]	2e	12b]L
.	.	12cc#
.	.	12b
6F#	.	12a#
.	.	12g#
12A#	.	12f#J
4B	2d	12r
.	.	12bL
.	.	12an
[4E	.	12gn
.	.	12f#
.	.	12eJ
=45	=45	=45
4E]	2c#	12a#L
.	.	12f#
.	.	12g#
6D	.	12a#
.	.	12b
12A#	.	12cc#J
4B	2B	12ddL
.	.	12c#
.	.	12d
[4C#	.	12e
.	.	12f#
.	.	[12gnJ
=46	=46	=46
12C#]L	4A#	4g]
12D	.	.
12E	.	.
12D	4B	12f#L
12C#	.	12e
12BBJ	.	12dJ
12AA#L	[2c#	4e
12G	.	.
12F#	.	.
12E	.	4A#
12D	.	.
12C#J	.	.
=47	=47	=47
12DL	6c#]	[2f#
12E	.	.
12F#	12A#	.
12E	6B	.
12D	.	.
12C#J	12c#	.
12BBL	[2d	6f#]
12A	.	.
12G	.	12B
12F#	.	6A#
12E	.	.
12DJ	.	12B
=48	=48	=48
12EL	6d]	[2g
12F#	.	.
12G	12B	.
12F#	6c#	.
12E	.	.
12DJ	12d	.
12C#L	[2e	6g]
12B	.	.
12A	.	12c#
12G	.	6B
12F#	.	.
12EJ	.	12c#
=49	=49	=49
12F#L	6e]	[2a
12G	.	.
12A	12c#	.
12G	6d#	.
12F#	.	.
12EJ	12e	.
12D#L	[4f#	6a]
12cn	.	.
12B	.	12e
12A	12f#]L	4d#
12G	12e	.
12F#J	12f#J	.
=50	=50	=50
12EL	4g	4e
12G	.	.
12BJ	.	.
4c#	16aL	4r
.	16g	.
.	16f#	.
.	16gJ	.
12F#L	4a	4ccn
12A	.	.
12cnJ	.	.
4d#	16bL	4r
.	16a	.
.	16g	.
.	16aJ	.
=51	=51	=51
12GL	4b	4b
12B	.	.
12d#J	.	.
*strophe	*	*
*^	*	*
*S/sic	*S/ossia	*	*
4e	[x4e	4g	12r
.	.	.	12eeL
.	.	.	12ddJ
12ExxL	12e]xx	4e	12ccL
*v	*v	*	*
*Xstrophe	*	*
12dn	.	12b
12c	.	12a
12B	[4cc	12g#
12A	.	12a
12G#J	.	12bJ
=52	=52	=52
2A	4cc]	12eL
.	.	12f#
.	.	12e
.	6b	12d#
.	.	12e
.	12dd#	12f#J
2Gn	4ee	12BL
.	.	12e
.	.	12dn
.	[4a	12c#
.	.	12d#
.	.	12eJ
=53	=53	=53
2F#	4a]	12d#L
.	.	12e
.	.	12f#
.	6g	12B
.	.	12cn
.	12dd#	12AJ
2E	4ee	12GL
.	.	12A
.	.	12B
.	[4f#	12c
.	.	12B
.	.	12AJ
=54	=54	=54
4D#	12f#]L	2B
.	12g	.
.	12a	.
4E	12g	.
.	12f#	.
.	12eJ	.
4F#	12d#L	4r
.	12cc	.
.	12b	.
4BB	12a	4dd#
.	12g	.
.	12f#J	.
=55	=55	=55
4E	12gL	2ee
.	12a	.
.	12b	.
4F#	12a	.
.	12g	.
.	12f#J	.
4G	[2e	12r
.	.	12ffnL
.	.	12ee
4G#	.	12dd
.	.	12cc
.	.	12bJ
=56	=56	=56
4A	6e]	12ccL
.	.	12dd
.	[12f#	12ee
4B	6f#]	12dd
.	.	12cc
.	12g#	12bJ
4c	4a	12aL
.	.	12bb
.	.	12aa
4c#	[4e	12ggn
.	.	12ff#
.	.	12eeJ
=57	=57	=57
4D	6e]	12ff#L
.	.	12gg
.	[12d	12aa
4E	6d]	12gg
.	.	12ff#
.	12c#	12eeJ
4F#	[2d	12ddL
.	.	12ee
.	.	12dd
4D	.	12ccn
.	.	12b
.	.	12aJ
=58	=58	=58
4G	6d]	12bL
.	.	12cc
.	[12e	12dd
4A	6e]	12cc
.	.	12b
.	12f#	12aJ
4B	12gL	8g
.	12a	.
.	.	8r
.	12g	.
4G	12fn	4r
.	12e	.
.	12dJ	.
=59	=59	=59
12CL	12eL	2r
12D	12fn	.
12E	12g	.
12D	12f	.
12E	12e	.
12FnJ	12dJ	.
12EL	12cL	4r
12G#	12d	.
12AJ	12c	.
4D	12B	12r
.	12A	12aL
.	12G#J	12bJ
=60	=60	=60
12CL	[2A	4cc
12D	.	.
12EJ	.	.
4Fn	.	16ddL
.	.	16cc
.	.	16b
.	.	16ccJ
2BB	12A]L	4dd
.	12D	.
.	12FnJ	.
.	4G#	16eeL
.	.	16dd
.	.	16cc
.	.	16ddJ
=61	=61	=61
4AA	12r	4ee
.	12CL	.
.	12D	.
4r	12E	4cc
.	12F#	.
.	12G#J	.
12r	12A	4a
12BL	6r	.
12c	.	.
12d	4r	[4ffn
12e	.	.
12fnJ	.	.
=62	=62	=62
12G#L	2dd	4ff]
12A	.	.
12B	.	.
12c	.	6ee
12d	.	.
12eJ	.	12gg#
12F#L	2cc	4aa
12G#	.	.
12A	.	.
12B	.	[4dd
12c	.	.
12AJ	.	.
=63	=63	=63
12G#L	2b	4dd]
12F#	.	.
12E	.	.
12A	.	6cc
12B	.	.
12cJ	.	12gg#
12FnL	2a	4aa
12A	.	.
12Gn	.	.
12F	.	[4b
12G	.	.
12EJ	.	.
=64	=64	=64
6D	6g#	12b]L
.	.	12cc
12Fn	12G#	12dd
6E	6A	12cc
.	.	12b
12D#	12c	12aJ
2E	12BL	12g#L
.	12dn	12ffn
.	12c	12ee
.	12B	12dd
.	12A	12cc
.	12G#J	12bJ
=65	=65	=65
6AA	12A	12ccL
.	6r	12dd
12E	.	12ee
6A	4r	12dd
.	.	12cc
12B	.	12bJ
6c	12r	[2a
.	12gL	.
12A	12f#	.
6F#	12e	.
.	12d#	.
12A	12c#J	.
=66	=66	=66
12BBL	12d#L	2a_
12C#	12e	.
12D#	12f#	.
12C#	12e	.
12F#	12d#	.
12EJ	12c#J	.
12D#L	[2B	12a]L
12A	.	12d#
12G	.	12e
12F#	.	12f#
12E	.	12g
12D#J	.	12aJ
=67	=67	=67
12EL	6B]	[2g
12F#	.	.
12G	12B	.
12F#	6c	.
12E	.	.
12DnJ	12B	.
4C#	4A#	12g]L
.	.	12d#
.	.	12e
4Cn	[4An	12g
.	.	12f#
.	.	12aJ
=68	=68	=68
[1BB	12A]L	6d#
.	12c	.
.	12B	12e
.	12A	[4f#
.	12G	.
.	12F#J	.
.	[2G	12f#]L
.	.	12B
.	.	12d#
.	.	12f#
*	*	*strophe
*	*	*^
*	*	*S/sic	*S/ossia
.	.	12bxx	12exx
*	*	*v	*v
*	*	*Xstrophe
.	.	12d#J
=69	=69	=69
!! In measures 69 and 70 the mid-voice crosses briefly below the bass voice.
12BB]L	4G]	[2e
12C#	.	.
12D#	.	.
12E	4r	.
12F#	.	.
[12GJ	.	.
4G_	2AA#	12e]L
.	.	12g
.	.	12a#
12G]L	.	12cc#
12F#	.	12dd#
12GJ	.	12eeJ
=70	=70	=70
4G	2BB;	4e
4F#m;	.	4d#m;
12r	2r	2r
12CL	.	.
12BB	.	.
12AA	.	.
12GG	.	.
12FF#J	.	.
=71	=71	=71
12GGL	1r	12r
12AA	.	12BL
12GG	.	12c#
12FF#	.	12d#
12EE	.	12e
12DD#J	.	12f#J
4EE	.	12gL
.	.	12ccn
.	.	12b
12r	.	12a
12EEL	.	12g
12FF#J	.	12f#J
=72	=72	=72
4GG	1r	12eL
.	.	12gg
.	.	12eeJ
16AAL	.	4cc#
16GG	.	.
16FF#	.	.
16GGJ	.	.
4AA	.	12f#L
.	.	12aa
.	.	12ff#J
16BBL	.	4dd#
16AA	.	.
16GG	.	.
16AAJ	.	.
=73	=73	=73
4BB	2r	12gL
.	.	12bb
.	.	12gg
4GG	.	12ee
.	.	12ddn
.	.	12cc#J
4EE	12r	2dd
.	12bL	.
.	12g#	.
[4C	12e	.
.	12f#	.
.	12g#J	.
=74	=74	=74
4C]	2a	12ccL
.	.	12f#
.	.	12e
6BB	.	12d#
.	.	12e
12D#	.	12f#J
4E	2g	12gL
.	.	12a
.	.	12b
[4AA	.	12cc
.	.	12b
.	.	12aJ
=75	=75	=75
4AA]	2f#	12dd#L
.	.	12ee
.	.	12ff#
6GG	.	12b
.	.	12cc
12D#	.	12aJ
4E	2e	12gL
.	.	12f#
.	.	12g
[4FF#	.	12a
.	.	12b
.	.	[12ccJ
=76	=76	=76
12FF#]L	4d#	4cc]
12GG	.	.
12AA	.	.
12GG	4e	12bL
12FF#	.	12a
12EEJ	.	12gJ
12DD#L	[2f#	[2a
12C	.	.
12BB	.	.
12AA	.	.
12GG	.	.
12FF#J	.	.
=77	=77	=77
12GGL	6f#]	6a]
12AA	.	.
12BB	12d#	12f#
12AA	6B	6b
12GG	.	.
12FF#J	12d#	12a
12EEL	[2e	[2g
12E	.	.
12D	.	.
12C	.	.
12BB	.	.
12AA#J	.	.
=78	=78	=78
[1BB	4e]	12g]L
.	.	12b
.	.	12a
.	4r	12g
.	.	12f#
.	.	12eJ
.	12r	12d#
.	12D#L	[6cc
.	12E	.
.	12F#	12cc]L
.	12G	12e
.	12AJ	12d#J
=79	=79	=79
4BB_	12G	12bL
.	[6e	12e
.	.	12gJ
12BB]L	4e_	[4cc#
12A#	.	.
12BJ	.	.
[4BB	12e]	6cc#]
.	[6f#	.
.	.	12a
12BB]L	4f#_	[4dd#
12A#	.	.
12BJ	.	.
=80	=80	=80
[4BB	12f#]	6dd#]
.	[6g	.
.	.	12b
12BB]L	4g_	[4ee
12A#	.	.
12BJ	.	.
[4BB	12g]	6ee]
.	[6a	.
.	.	12dd#
12BB]L	4a_	[4ff#
12A#	.	.
12BJ	.	.
=81	=81	=81
[4BB	12a]	6ff#]
.	[6b	.
.	.	12ee
12BB]L	4b]	4gg
12A#	.	.
12BJ	.	.
12F#L	2r	2r
12G	.	.
12D#	.	.
12E	.	.
12BB	.	.
12CJ	.	.
=82	=82	=82
4DD#	1r	12r
.	.	12ccL
.	.	12ff#
4r	.	12aa
.	.	12dd#
.	.	12ff#J
2r	.	12ccL
.	.	12b
.	.	12dd#
.	.	12ff#
.	.	12a
.	.	12ccJ
=83	=83	=83
2r	2r	12gL
.	.	12f#
.	.	12a
.	.	12cc
.	.	12f#
.	.	12aJ
4AA;	4B; 4F#;	12eL
.	.	12d#m;
.	.	12dd#SJ
8r	8r	[4ee
16r	16r	.
16A#	16f#	.
=84	=84	=84
[1B	[4g	12ee]L
.	.	12ddn
.	.	12cc
.	12g]L	12b
.	12f#	12a
.	12eJ	12gJ
.	6d#	12aL
.	.	12f#
.	12e	12g
.	6f#	12a
.	.	12b
.	12e	[12ccJ
=85	=85	=85
12B]L	12d#	12cc]L
12c#	6r	12b
12d#	.	12a
12e	12r	12g
12r	12F#L	12d#
12AA#J	12GJ	[12eJ
2BB	[4F#	12e]L
.	.	24f#
.	.	24a
.	.	12ccJ
.	12F#]L	6d#m
.	12G	.
.	[12AnJ	12e
=86	=86	=86
*	*^	*
!! Four-voice material until the end:
[2E	12r	12A]	1e;
.	12BL	[6G#	.
.	12dnJ	.	.
.	4c	12G#]L	.
.	.	12G#	.
.	.	[12AJ	.
12E]L	2B;	4A]	.
12D#	.	.	.
12EJ	.	.	.
4EE;	.	4G#;	.
==	==	==	==
*-	*-	*-	*-
!!!OTA: Das wohltemperirte Clavier
!!!OCY: Deutschland
!!!PPP: Leipzig
!!!ODT: 1738//-1742//
!!!PDT: 1739//-1742//
!!!AFR: fuga; fugue
!!!AST: polyphony
!!!AMT: simple duple
!!!SCA: Bach-Werke-Verzeichnis
!!!YOR: Bach-Gesellschaft Ausgabe, Band 14
!!!YOO: Breitkopf und Härtel
!!!YOY: 1866
!!!YOE: Franz Kroll (1820-1877)
!!!AIN: cemba; clavi
!!!YEC: Copyright 1994, David Huron
!!!YEM: Rights to all derivative electronic formats reserved.
!!!ENC: David Huron
!!!END: 1986/12/03
!!!EED: David Huron
!!!YER: 1994/08/10
!!!EED2: Craig Stuart Sapp (notational niceties)
!!!EEV: 2020/09/19
!!!EFL: 34/48
